X: 36437
T: Seasick Dee
R: slip jig
M: 9/8
K: Dmajor
M:7/8
A,2 DG FGA|~G2 GA GFG|GA dA cde|dc AG FGE|
D2 ~D2 FGA|~G2 GA GFG|GA dA cde|dc AG FGE|
D2 AD FGA|~G2 GA GFG|GA dA cde|dc AG FGE|
D2 ~D2 FGA|~G2 GA GFG|GA dA cde|dc AG FGE||
D2 ~d2 def|~e2 ef edB|A2 dA cde|dc AG FGE|
D2 ~d2 def|~e2 ef edB|da af fge|ef df edB|
A2 dA def|~e2 ef edB|A2 dA cde|dc AG FGE|
D2 ~d2 def|~e2 ef edB|da a/a/a agg|gf f/f/f edd||

